X:222
T:O'Connell's Farewell to Dublin (reel) 
B:CRE2.231 (Slan Ui Chonaill le Baile Atha Cliath)
F:file ID: cre.2/222oconn_f
M:C
R:reel
Q:180
K:Am
G|AcBG A2 (3Bcd|eaa^f gedB|G2GE GEDE|GABG AGEG|
"5"AcBG A2 (3Bcd|eaa^f gedA|(3Bcd a^f gfed|gedB A3:|
|:B|"9"c2cB cdeg|g2ag ged2|dBGB d3d|dBGB d2dB|
"13"c2cB cdeg|g2ag gedA|(3Bcd a^f gfed|1 gedB A3:|2 gedB A2||
|:(3Bcd|"17"eaag a2ab|[ac']2ba age^f|gba^f gece|gba^f gedf|
"21"eaag a2ab|[ac']2ba aged|(3Bcd a^f gfed|1 gedB A2:|2 gedB A4|]

%%%

